X: 13
T: Cliffs, The
Z: swisspiper
S: https://thesession.org/tunes/412#setting51780
R: hornpipe
M: 4/4
L: 1/8
K: Dmaj
|:AF|{A}.DFAF {A}.DGBG|FAde {g}fdAF|GBef (3.g.f.e fd|ed.cB {AG}AG{FG}FE|
{A}.DFAF {A}.DGBG|FAde {g}fdAF|GB (3.e.f.g fedc|eddc "~~"d2:|
|:fd|eA{B}AG "~~"A2 fd|eAAG "~~"A2 ef|(3.g.f.e fd edcd|(3.e.f.e (3.d.c.B (3.A.c.A (3.G.F.E|
{A}.DFAF {A}.DGBG|FAde {g}fdAF|GB (3.e.f.g fedc|eddc "~~"d2:|

%-------------------- TUNE SEPARATOR --------------------%

